icons/discussion-outdated-24.svg

<svg width="24" height="24" viewBox="0 0 24 24" fill="none" xmlns="http://www.w3.org/2000/svg">
<path d="M3.75 5.75C3.61193 5.75 3.5 5.86193 3.5 6V15.5C3.5 15.6381 3.61193 15.75 3.75 15.75H5.75C6.16421 15.75 6.5 16.0858 6.5 16.5V18.6893L9.21967 15.9697C9.51256 15.6768 9.98744 15.6768 10.2803 15.9697C10.5732 16.2626 10.5732 16.7374 10.2803 17.0303L7.48744 19.8232C7.21418 20.0965 6.84356 20.25 6.45711 20.25C5.65237 20.25 5 19.5976 5 18.7929V17.25H3.75C2.7835 17.25 2 16.4665 2 15.5V6C2 5.0335 2.7835 4.25 3.75 4.25H16.25C17.2165 4.25 18 5.0335 18 6V9.25C18 9.66421 17.6642 10 17.25 10C16.8358 10 16.5 9.66421 16.5 9.25V6C16.5 5.86193 16.3881 5.75 16.25 5.75H3.75Z" fill="black"/>
<path d="M18 15.25C18 14.8358 17.6642 14.5 17.25 14.5C16.8358 14.5 16.5 14.8358 16.5 15.25V17.8167C16.5 18.0758 16.6338 18.3166 16.8538 18.4535L18.3538 19.3868C18.7055 19.6056 19.168 19.4979 19.3868 19.1462C19.6056 18.7945 19.4979 18.332 19.1462 18.1132L18 17.4V15.25Z" fill="black"/>
<path fill-rule="evenodd" clip-rule="evenodd" d="M11.5 17.25C11.5 14.0744 14.0744 11.5 17.25 11.5C20.4256 11.5 23 14.0744 23 17.25C23 20.4256 20.4256 23 17.25 23C14.0744 23 11.5 20.4256 11.5 17.25ZM17.25 13C14.9028 13 13 14.9028 13 17.25C13 19.5972 14.9028 21.5 17.25 21.5C19.5972 21.5 21.5 19.5972 21.5 17.25C21.5 14.9028 19.5972 13 17.25 13Z" fill="black"/>
</svg>

<svg xmlns="http://www.w3.org/2000/svg" width="24" height="24" viewBox="0 0 24 24"><path d="M3.75 5.75A.25.25 0 0 0 3.5 6v9.5c0 .138.112.25.25.25h2a.75.75 0 0 1 .75.75v2.189l2.72-2.719a.749.749 0 1 1 1.06 1.06l-2.793 2.793A1.456 1.456 0 0 1 5 18.793V17.25H3.75A1.75 1.75 0 0 1 2 15.5V6c0-.966.784-1.75 1.75-1.75h12.5c.966 0 1.75.784 1.75 1.75v3.25a.75.75 0 0 1-1.5 0V6a.25.25 0 0 0-.25-.25H3.75ZM18 15.25a.75.75 0 0 0-1.5 0v2.567c0 .259.134.5.354.636l1.5.934a.75.75 0 1 0 .792-1.274L18 17.4v-2.15Z"/><path d="M11.5 17.25a5.75 5.75 0 1 1 11.5 0 5.75 5.75 0 1 1-11.5 0ZM17.25 13a4.25 4.25 0 1 0 0 8.5 4.25 4.25 0 0 0 0-8.5Z"/></svg>
